lib/brands/icons/google-360suite.svg

<svg xmlns="http://www.w3.org/2000/svg" fill="none" aria-hidden="true" viewBox="0 0 48 48"><g id="google-360suite-Icon"><g id="Group"><g id="Group_2"><path id="Vector" fill="#4FC3F7" d="M29.7882 29.7783C28.295 31.2714 26.3519 32.0692 24.3883 32.1714C24.2655 32.1714 24.1224 32.1919 23.9996 32.1919C23.8769 32.1919 23.7337 32.1919 23.611 32.1714C21.5042 32.1101 19.4179 31.5374 17.5361 30.4737C16.5339 29.901 15.593 29.2056 14.7544 28.3465C13.4658 27.0579 12.5044 25.5852 11.8703 24.0102C10.3772 20.3285 10.6431 16.1354 12.6271 12.6377C8.65904 14.8672 6 19.1217 6 23.9898C6 28.8579 8.65904 33.1123 12.6271 35.3623C14.5294 36.4463 16.7384 37.0804 19.0907 37.0804C20.8293 37.0804 22.486 36.7327 23.9996 36.1191C26.7405 35.0146 29.0314 33.01 30.4632 30.4533C31.4859 28.6533 32.0995 26.5874 32.1608 24.3784C32.079 26.3625 31.2813 28.2851 29.7882 29.7783Z"/><g id="Group_3"><path id="Vector_2" fill="#4285F4" d="M33.245 9.83551C28.1315 4.72197 19.8476 4.72197 14.734 9.83551C13.875 10.6946 13.1795 11.6355 12.6068 12.6173C10.6228 16.1149 10.3773 20.308 11.8705 23.9898C12.5045 25.5647 13.4659 27.0579 14.7545 28.3261C15.6136 29.1851 16.5545 29.8806 17.5363 30.4533C19.418 31.5169 21.5044 32.0896 23.6111 32.151C21.6475 32.0487 19.7248 31.251 18.2112 29.7578C16.6158 28.1829 15.8181 26.0761 15.8181 23.9898V23.9693C15.8181 21.7398 16.3908 19.5103 17.5363 17.5058C18.109 16.5036 18.8044 15.5627 19.6635 14.724C20.9521 13.4354 22.4248 12.4741 23.9998 11.84C27.6815 10.3469 31.8951 10.6128 35.3927 12.5968C34.82 11.615 34.1041 10.6741 33.245 9.83551Z"/></g><path id="Vector_3" fill="#1A237E" d="M23.9995 11.6559C22.4246 12.29 20.9314 13.2513 19.6632 14.54C18.8042 15.399 18.1087 16.3399 17.536 17.3217C16.3906 19.3058 15.8179 21.5353 15.8179 23.7648V23.7852C15.8179 23.8057 15.8179 23.8466 15.8179 23.867C15.8383 21.6785 16.411 19.4694 17.536 17.5058C18.1087 16.5036 18.8042 15.5627 19.6632 14.724C20.9519 13.4354 22.4246 12.4741 23.9995 11.84C27.6813 10.3469 31.8948 10.6128 35.3925 12.5968C35.3311 12.4945 35.2698 12.3923 35.2084 12.29C31.7516 10.4082 27.6199 10.1832 23.9995 11.6559Z" opacity="0.2"/><path id="Vector_4" fill="#1A237E" d="M14.7545 28.1215C13.4659 26.8329 12.5046 25.3602 11.8705 23.7852C11.2364 22.2103 10.9092 20.5535 10.9092 18.8967C10.8887 20.6353 11.1955 22.3534 11.8705 23.9898C12.5046 25.5647 13.4659 27.0579 14.7545 28.326C15.6136 29.1851 16.5545 29.8806 17.5363 30.4533C19.4181 31.5169 21.5044 32.0896 23.6112 32.151C22.7521 32.1101 21.893 31.926 21.0749 31.6192C19.8476 31.3328 18.6613 30.8828 17.5363 30.2487C16.534 29.6965 15.5932 28.9806 14.7545 28.1215Z" opacity="0.2"/><path id="Vector_5" fill="#FFC107" d="M38.1538 14.7445C37.2947 13.8854 36.3538 13.19 35.372 12.6173C31.8744 10.6332 27.6608 10.3673 23.9791 11.8605C22.4041 12.4945 20.911 13.4559 19.6428 14.7445C18.7837 15.6036 18.0883 16.5445 17.5156 17.5263C16.3906 19.5103 15.8179 21.7398 15.8179 23.9693C15.8179 21.883 16.6156 19.7967 18.211 18.2013C19.7042 16.7081 21.6473 15.9104 23.6109 15.8081C23.8768 15.7877 24.1427 15.7877 24.3882 15.8081C26.4949 15.8695 28.5813 16.4422 30.463 17.5058C31.4653 18.0785 32.4062 18.774 33.2448 19.633C34.5334 20.9217 35.4948 22.3943 36.1288 23.9693C37.622 27.6511 37.3561 31.8646 35.372 35.3418C36.3743 34.7691 37.3152 34.0737 38.1538 33.2146C43.2673 28.142 43.2673 19.8376 38.1538 14.7445Z"/><path id="Vector_6" fill="white" d="M15.8179 24.1943C15.8179 26.2806 16.6156 28.3874 18.211 29.9828C19.7042 31.476 21.6473 32.2737 23.6109 32.376C23.7336 32.376 23.8768 32.3964 23.9995 32.3964C24.1223 32.3964 24.2654 32.3964 24.3882 32.376C26.3518 32.2737 28.2744 31.476 29.788 29.9828C31.1585 28.6124 31.9357 26.8738 32.1403 25.0943C32.1607 24.8693 32.1812 24.6238 32.1812 24.3989C32.0789 26.3625 31.2812 28.2851 29.788 29.7783C28.2949 31.2714 26.3518 32.0692 24.3882 32.1714C24.2654 32.1714 24.1223 32.1919 23.9995 32.1919C23.8768 32.1919 23.7336 32.1919 23.6109 32.1714C21.6473 32.0692 19.7246 31.2714 18.211 29.7783C16.636 28.2033 15.8588 26.1579 15.8179 24.092C15.8179 24.1125 15.8179 24.1534 15.8179 24.1943C15.8179 24.1943 15.8179 24.1739 15.8179 24.1943Z" opacity="0.2"/><path id="Vector_7" fill="#BF360C" d="M36.1493 23.7852C35.5152 22.2103 34.5539 20.7171 33.2653 19.449C32.4062 18.5899 31.4653 17.8944 30.4835 17.3217C28.6017 16.2581 26.5154 15.6854 24.4086 15.624C24.1427 15.6036 23.8768 15.6036 23.6314 15.624C21.6678 15.7263 19.7451 16.5036 18.2315 18.0172C16.6156 19.5921 15.8179 21.6785 15.8179 23.7648V23.7852C15.8179 23.8261 15.8179 23.8466 15.8179 23.8875C15.8383 21.8216 16.636 19.7762 18.211 18.2013C19.7042 16.7081 21.6473 15.9104 23.6109 15.8081C23.8768 15.7877 24.1427 15.7877 24.3882 15.8081C26.4949 15.8695 28.5813 16.4422 30.463 17.5058C31.4653 18.0785 32.4062 18.774 33.2448 19.633C34.5334 20.9217 35.4948 22.3943 36.1288 23.9693C36.7629 25.5443 37.0697 27.2011 37.0697 28.8579C37.1106 27.1397 36.8038 25.4216 36.1493 23.7852Z" opacity="0.2"/><path id="Vector_8" fill="#BF360C" d="M38.1538 33.0305C37.3561 33.8282 36.4561 34.5032 35.5152 35.0555C35.4538 35.1577 35.4129 35.26 35.3516 35.3623C36.3538 34.7896 37.2947 34.0941 38.1333 33.235C40.7105 30.6578 41.9992 27.2624 41.9582 23.867C41.9787 27.2011 40.6901 30.5146 38.1538 33.0305Z" opacity="0.2"/><g id="Group_4" opacity="0.2"><path id="Vector_9" fill="#1A237E" d="M33.2448 19.858C34.5334 21.1466 35.4948 22.6193 36.1289 24.1943C36.7629 25.7693 37.0697 27.4261 37.0697 29.0829C37.0902 27.3442 36.7834 25.6261 36.1289 23.9898C35.4948 22.4148 34.5334 20.9216 33.2448 19.6535C32.3858 18.7944 31.4449 18.099 30.4631 17.5263C28.5813 16.4626 26.495 15.8899 24.3882 15.8286C25.2473 15.8695 26.1063 16.0536 26.9245 16.3604C28.1517 16.6467 29.3381 17.0967 30.4631 17.7308C31.4653 18.2831 32.4062 18.999 33.2448 19.858Z" opacity="0.2"/></g><g id="Group_5" opacity="0.2"><path id="Vector_10" fill="white" d="M38.1539 14.7445C37.2948 13.8854 36.3539 13.19 35.3721 12.6173C34.7994 11.615 34.104 10.6741 33.2449 9.83551C28.1314 4.72197 19.8475 4.72197 14.7339 9.83551C13.8748 10.6946 13.1794 11.6355 12.6067 12.6173C8.65904 14.8672 6 19.1217 6 23.9898C6 24.0307 6 24.0511 6 24.092C6.04091 19.3262 8.61813 15.174 12.4431 12.9241C11.4203 14.8468 10.909 16.974 10.909 19.1012C10.9499 16.9331 11.5022 14.765 12.6067 12.8218C13.1794 11.8196 13.8748 10.8787 14.7339 10.04C19.8475 4.92651 28.1314 4.92651 33.2449 10.04C34.0017 10.7969 34.6563 11.6355 35.1881 12.5355C31.7313 10.6332 27.5996 10.4082 23.9792 11.8809C22.4042 12.515 20.9111 13.4763 19.6429 14.765C18.7838 15.624 18.0884 16.5649 17.5157 17.5467C16.3907 19.5103 15.818 21.7398 15.818 23.9693C15.818 23.7034 15.8384 23.4171 15.8589 23.1512C16.0021 21.2694 16.5748 19.408 17.5361 17.7103C18.1089 16.7081 18.8043 15.7672 19.6634 14.9286C20.952 13.64 22.4247 12.6786 23.9996 12.0446C27.6814 10.5514 31.8949 10.8173 35.3926 12.8014C36.3949 13.3741 37.3357 14.0695 38.1744 14.9286C40.7107 17.4649 41.9788 20.758 41.9998 24.092C42.0197 20.6967 40.7516 17.3217 38.1539 14.7445Z" opacity="0.2"/></g><g id="Group_6"><g id="Group_7"><g id="Vector_11" filter="url(#filter0_d_94_17912)"><path fill="black" d="M36.1498 23.9898C35.5157 22.4148 34.5543 20.9216 33.2657 19.6535C32.4066 18.7944 31.4658 18.099 30.484 17.5263C28.6022 16.4626 26.5159 15.8899 24.4091 15.8286C26.3727 15.9308 28.2954 16.7081 29.809 18.2217C31.2817 19.6944 32.0794 21.6375 32.1817 23.5807C32.1817 23.7239 32.2021 23.8466 32.2021 23.9898C32.2021 24.1329 32.2021 24.2557 32.1817 24.3988C32.1203 26.6079 31.5067 28.6738 30.484 30.4737C29.0317 33.01 26.7613 35.035 24.0204 36.1395C22.5068 36.7531 20.8501 37.1009 19.1115 37.1009C16.7592 37.1009 14.5502 36.4668 12.6479 35.3827C13.2207 36.385 13.9161 37.3259 14.7752 38.1645C19.8887 43.278 28.1726 43.278 33.2862 38.1645C34.1452 37.3054 34.8407 36.3645 35.4134 35.3827C37.377 31.8851 37.6225 27.6715 36.1498 23.9898Z"/></g></g><path id="Vector_12" fill="#3367D6" d="M36.1493 23.9898C35.5152 22.4148 34.5538 20.9216 33.2652 19.6535C32.4062 18.7944 31.4653 18.099 30.4835 17.5263C28.6017 16.4626 26.5154 15.8899 24.4086 15.8286C26.3722 15.9308 28.2949 16.7081 29.8085 18.2217C31.2812 19.6944 32.0789 21.6375 32.1812 23.5807C32.1812 23.7239 32.2016 23.8466 32.2016 23.9898C32.2016 24.1329 32.2016 24.2557 32.1812 24.3989C32.1198 26.6079 31.5062 28.6738 30.4835 30.4737C29.0312 33.01 26.7608 35.035 24.02 36.1395C22.5064 36.7532 20.8496 37.1009 19.111 37.1009C16.7587 37.1009 14.5497 36.4668 12.6475 35.3827C13.2202 36.385 13.9156 37.3259 14.7747 38.1645C19.8882 43.278 28.1722 43.278 33.2857 38.1645C34.1448 37.3054 34.8402 36.3645 35.4129 35.3827C37.3765 31.8851 37.622 27.6715 36.1493 23.9898Z"/></g><g id="Group_8" opacity="0.2"><path id="Vector_13" fill="#1A237E" d="M23.9995 36.3236C26.7404 35.2191 29.0108 33.2146 30.463 30.6578C31.4857 28.8579 32.0993 26.792 32.1607 24.5829C32.1607 24.4398 32.1812 24.317 32.1812 24.1739C32.1812 24.1329 32.1812 24.1125 32.1812 24.0716C32.1812 24.1739 32.1812 24.2761 32.1812 24.3784C32.1198 26.5874 31.5062 28.6533 30.4835 30.4533C29.0312 32.9896 26.7608 35.0146 24.02 36.1191C22.5064 36.7327 20.8496 37.0804 19.111 37.0804C16.7587 37.0804 14.5497 36.4463 12.6475 35.3623C12.7088 35.4645 12.7702 35.5668 12.8315 35.6691C14.6929 36.6918 16.8406 37.285 19.1314 37.285C20.8291 37.285 22.4859 36.9372 23.9995 36.3236Z" opacity="0.2"/></g><g id="Group_9" opacity="0.2"><path id="Vector_14" fill="#1A237E" d="M12.7908 35.4645C14.6521 36.4873 16.7998 37.0804 19.0907 37.0804C20.8293 37.0804 22.486 36.7327 23.9996 36.1191C26.7405 35.0146 29.0314 33.01 30.4632 30.4533C31.4859 28.6533 32.0995 26.5874 32.1608 24.3784C32.1608 24.542 32.1404 24.7057 32.1199 24.8693C31.9563 26.8124 31.3836 28.6329 30.4632 30.2487C29.0109 32.8055 26.7405 34.81 23.9996 35.9145C22.486 36.5282 20.8293 36.8759 19.0907 36.8759C16.7384 36.8759 14.5294 36.2418 12.6271 35.1577C8.69995 32.9282 6.04091 28.7147 6 23.8875C6 23.9284 6 23.9489 6 23.9898C6 28.8579 8.65904 33.1123 12.6271 35.3623" opacity="0.2"/></g><path id="Vector_15" fill="url(#paint0_linear_94_17912)" d="M33.3677 19.7762C34.5949 21.0239 35.5154 22.4762 36.129 23.9898C37.6221 27.6715 37.3562 31.8851 35.3722 35.3623C36.3744 34.7896 37.3153 34.0941 38.1539 33.235C39.7289 31.6601 40.813 29.7987 41.4062 27.8147L33.3677 19.7762Z"/><path id="Vector_16" fill="#1A237E" d="M35.3719 35.1577C34.7992 36.16 34.1037 37.1009 33.2447 37.9395C28.1311 43.053 19.8472 43.053 14.7337 37.9395C13.9769 37.1827 13.3223 36.3441 12.7905 35.4645C12.7292 35.4236 12.6678 35.4032 12.6064 35.3623C13.1792 36.3645 13.8746 37.3054 14.7337 38.144C19.8472 43.2576 28.1311 43.2576 33.2447 38.144C34.1037 37.285 34.7992 36.3441 35.3719 35.3623C36.5173 33.3578 37.09 31.1078 37.0696 28.8783C37.0491 31.0465 36.4969 33.2146 35.3719 35.1577Z" opacity="0.2"/></g><path id="Vector_17" fill="url(#paint1_radial_94_17912)" fill-opacity="0.1" d="M38.1539 14.7445C37.2948 13.8854 36.3539 13.19 35.3721 12.6173C34.7994 11.615 34.104 10.6741 33.2449 9.83551C28.1314 4.72197 19.8475 4.72197 14.7339 9.83551C13.8748 10.6946 13.1794 11.6355 12.6067 12.6173C8.65904 14.8672 6 19.1217 6 23.9898C6 28.8579 8.65904 33.1123 12.6271 35.3623C13.1999 36.3645 13.8953 37.3054 14.7544 38.144C19.8679 43.2576 28.1518 43.2576 33.2654 38.144C34.1244 37.285 34.8199 36.3441 35.3926 35.3623C36.3949 34.7896 37.3357 34.0941 38.1744 33.235C43.2674 28.142 43.2674 19.8376 38.1539 14.7445ZM32.1813 23.9898C32.1813 28.5101 28.52 32.1714 23.9996 32.1714C19.4793 32.1714 15.818 28.5101 15.818 23.9898C15.818 19.4694 19.4793 15.8081 23.9996 15.8081C28.52 15.8081 32.1813 19.4694 32.1813 23.9898Z"/></g></g><defs><filter id="filter0_d_94_17912" width="36.4487" height="38.1711" x="8.64795" y="9.82856" color-interpolation-filters="sRGB" filterUnits="userSpaceOnUse"><feFlood flood-opacity="0" result="BackgroundImageFix"/><feColorMatrix in="SourceAlpha" result="hardAlpha" values="0 0 0 0 0 0 0 0 0 0 0 0 0 0 0 0 0 0 127 0"/><feOffset dx="2"/><feGaussianBlur stdDeviation="3"/><feColorMatrix values="0 0 0 0 0.768627 0 0 0 0 0.489469 0 0 0 0 0.0235294 0 0 0 0.2 0"/><feBlend in2="BackgroundImageFix" result="effect1_dropShadow_94_17912"/><feBlend in="SourceGraphic" in2="effect1_dropShadow_94_17912" result="shape"/></filter><linearGradient id="paint0_linear_94_17912" x1="33.4853" x2="40.7565" y1="26.6744" y2="28.6085" gradientUnits="userSpaceOnUse"><stop stop-color="#BF360C" stop-opacity="0.2"/><stop offset="1" stop-color="#BF360C" stop-opacity="0"/></linearGradient><radialGradient id="paint1_radial_94_17912" cx="0" cy="0" r="1" gradientTransform="translate(10.635 10.831) scale(35.7298)" gradientUnits="userSpaceOnUse"><stop stop-color="white"/><stop offset="1" stop-color="white" stop-opacity="0"/></radialGradient></defs></svg>

<svg xmlns="http://www.w3.org/2000/svg" fill="none" aria-hidden="true" viewBox="0 0 48 48"><path fill="#4FC3F7" d="M29.788 29.778a8.225 8.225 0 0 1-5.4 2.393c-.123 0-.266.02-.388.02-.123 0-.266 0-.389-.02a13.118 13.118 0 0 1-6.075-1.697 12.565 12.565 0 0 1-2.782-2.128 12.977 12.977 0 0 1-2.884-4.336 13.09 13.09 0 0 1 .757-11.372A12.997 12.997 0 0 0 6 23.99c0 4.868 2.659 9.122 6.627 11.372a13.032 13.032 0 0 0 6.464 1.718A13.04 13.04 0 0 0 24 36.12a12.963 12.963 0 0 0 6.463-5.667 12.992 12.992 0 0 0 1.698-6.075 8.063 8.063 0 0 1-2.373 5.4Z"/><path fill="#4285F4" d="M33.245 9.836c-5.113-5.114-13.397-5.114-18.511 0a13.59 13.59 0 0 0-2.127 2.781 13.086 13.086 0 0 0-.736 11.373 12.777 12.777 0 0 0 2.883 4.336c.86.86 1.8 1.555 2.782 2.127a13.12 13.12 0 0 0 6.075 1.698 8.268 8.268 0 0 1-5.4-2.393 8.097 8.097 0 0 1-2.393-5.768v-.02c0-2.23.573-4.46 1.718-6.464a12.568 12.568 0 0 1 2.127-2.782A12.977 12.977 0 0 1 24 11.84a13.134 13.134 0 0 1 11.393.757 13.048 13.048 0 0 0-2.148-2.761Z"/><path fill="#1A237E" d="M24 11.656a12.777 12.777 0 0 0-4.337 2.884c-.859.859-1.554 1.8-2.127 2.782a12.888 12.888 0 0 0-1.718 6.443v.102c.02-2.189.593-4.398 1.718-6.361a12.57 12.57 0 0 1 2.127-2.782A12.979 12.979 0 0 1 24 11.84a13.135 13.135 0 0 1 11.392.757l-.184-.307A13.14 13.14 0 0 0 24 11.656Zm-9.245 16.466a12.977 12.977 0 0 1-2.885-4.337 13.088 13.088 0 0 1-.96-4.888 12.88 12.88 0 0 0 .96 5.093 12.777 12.777 0 0 0 2.885 4.336c.859.86 1.8 1.555 2.781 2.127a13.12 13.12 0 0 0 6.075 1.698 8.383 8.383 0 0 1-2.536-.532 13.357 13.357 0 0 1-3.539-1.37 11.975 11.975 0 0 1-2.782-2.127Z" opacity=".2"/><path fill="#FFC107" d="M38.154 14.745a13.59 13.59 0 0 0-2.782-2.128 13.134 13.134 0 0 0-11.393-.757 12.776 12.776 0 0 0-4.336 2.885c-.86.859-1.555 1.8-2.127 2.781a13.079 13.079 0 0 0-1.698 6.443c0-2.086.798-4.172 2.393-5.768a8.225 8.225 0 0 1 5.4-2.393c.266-.02.532-.02.777 0a13.12 13.12 0 0 1 6.075 1.698 12.566 12.566 0 0 1 2.782 2.127 12.976 12.976 0 0 1 2.884 4.336 13.085 13.085 0 0 1-.757 11.373 12.563 12.563 0 0 0 2.782-2.127c5.113-5.073 5.113-13.377 0-18.47Z"/><path fill="#fff" d="M15.818 24.194a8.18 8.18 0 0 0 2.393 5.789 8.225 8.225 0 0 0 5.4 2.393c.123 0 .266.02.389.02.122 0 .265 0 .388-.02a8.268 8.268 0 0 0 5.4-2.393 8.216 8.216 0 0 0 2.352-4.889c.02-.225.041-.47.041-.695a8.175 8.175 0 0 1-2.393 5.38 8.224 8.224 0 0 1-5.4 2.392c-.123 0-.266.02-.389.02-.122 0-.265 0-.388-.02a8.268 8.268 0 0 1-5.4-2.393c-1.575-1.575-2.352-3.62-2.393-5.686v.102s0-.02 0 0Z" opacity=".2"/><path fill="#BF360C" d="M36.15 23.785a12.777 12.777 0 0 0-2.885-4.336c-.859-.86-1.8-1.555-2.782-2.127a13.12 13.12 0 0 0-6.074-1.698 4.94 4.94 0 0 0-.778 0 8.17 8.17 0 0 0-5.4 2.393 7.988 7.988 0 0 0-2.413 5.748v.122a8.117 8.117 0 0 1 2.393-5.686 8.225 8.225 0 0 1 5.4-2.393c.266-.02.532-.02.777 0a13.12 13.12 0 0 1 6.075 1.698 12.566 12.566 0 0 1 2.782 2.127 12.976 12.976 0 0 1 2.884 4.336c.634 1.575.94 3.232.94 4.889a12.809 12.809 0 0 0-.92-5.073Zm2.004 9.245a13.135 13.135 0 0 1-2.639 2.026c-.061.102-.102.204-.163.306a12.565 12.565 0 0 0 2.781-2.127 12.996 12.996 0 0 0 3.825-9.368 12.765 12.765 0 0 1-3.804 9.164Z" opacity=".2"/><path fill="#1A237E" d="M33.245 19.858a12.977 12.977 0 0 1 2.884 4.336c.634 1.575.94 3.232.94 4.889a13.232 13.232 0 0 0-.94-5.093 12.776 12.776 0 0 0-2.884-4.336 13.59 13.59 0 0 0-2.782-2.128 13.118 13.118 0 0 0-6.075-1.697 8.37 8.37 0 0 1 2.536.531c1.228.287 2.414.737 3.54 1.37a11.98 11.98 0 0 1 2.78 2.128Z" opacity=".2"/><path fill="#fff" d="M38.154 14.745a13.59 13.59 0 0 0-2.782-2.128 12.563 12.563 0 0 0-2.127-2.781c-5.114-5.114-13.397-5.114-18.511 0-.86.859-1.555 1.8-2.127 2.781A13.078 13.078 0 0 0 6 23.99v.102a13.066 13.066 0 0 1 6.443-11.168 13.155 13.155 0 0 0-1.534 6.177c.04-2.168.593-4.336 1.698-6.28a12.568 12.568 0 0 1 2.127-2.781c5.114-5.113 13.397-5.113 18.51 0a12.611 12.611 0 0 1 1.944 2.496 13.07 13.07 0 0 0-11.209-.655 12.776 12.776 0 0 0-4.336 2.884c-.86.859-1.555 1.8-2.127 2.782a12.946 12.946 0 0 0-1.698 6.422 13.08 13.08 0 0 1 1.718-6.259 12.569 12.569 0 0 1 2.127-2.781A12.976 12.976 0 0 1 24 12.045a13.134 13.134 0 0 1 11.393.756 12.566 12.566 0 0 1 2.781 2.128A12.994 12.994 0 0 1 42 24.092c.02-3.395-1.248-6.77-3.846-9.347Z" opacity=".2"/><g filter="url(#a)"><path fill="#000" d="M36.15 23.99a12.776 12.776 0 0 0-2.884-4.336 13.59 13.59 0 0 0-2.782-2.128 13.118 13.118 0 0 0-6.075-1.697 8.17 8.17 0 0 1 5.4 2.393 8.2 8.2 0 0 1 2.373 5.359c0 .143.02.266.02.409 0 .143 0 .266-.02.409a12.993 12.993 0 0 1-1.698 6.075c-1.452 2.536-3.723 4.561-6.464 5.665a13.04 13.04 0 0 1-4.909.962c-2.352 0-4.56-.634-6.463-1.718a12.567 12.567 0 0 0 2.127 2.781c5.114 5.114 13.398 5.114 18.511 0a13.59 13.59 0 0 0 2.127-2.781 13.271 13.271 0 0 0 .737-11.393Z"/></g><path fill="#3367D6" d="M36.15 23.99a12.776 12.776 0 0 0-2.885-4.336c-.859-.86-1.8-1.555-2.782-2.128a13.118 13.118 0 0 0-6.074-1.697 8.17 8.17 0 0 1 5.4 2.393 8.2 8.2 0 0 1 2.372 5.359c0 .143.02.266.02.409 0 .143 0 .266-.02.409a12.993 12.993 0 0 1-1.697 6.075c-1.453 2.536-3.723 4.561-6.464 5.665a13.04 13.04 0 0 1-4.909.962 13.03 13.03 0 0 1-6.463-1.718 12.563 12.563 0 0 0 2.127 2.781c5.113 5.114 13.397 5.114 18.51 0 .86-.859 1.555-1.8 2.128-2.781a13.271 13.271 0 0 0 .736-11.393Z"/><path fill="#1A237E" d="M24 36.324a13.047 13.047 0 0 0 6.463-5.666 12.993 12.993 0 0 0 1.698-6.075c0-.143.02-.266.02-.41v-.101.306a12.994 12.994 0 0 1-1.697 6.075c-1.453 2.537-3.723 4.562-6.464 5.666a13.031 13.031 0 0 1-11.372-.757c.06.103.122.205.184.307a13.05 13.05 0 0 0 6.3 1.616 12.99 12.99 0 0 0 4.867-.961Z" opacity=".2"/><path fill="#1A237E" d="M12.79 35.465a13.05 13.05 0 0 0 11.21.654 12.963 12.963 0 0 0 6.463-5.666 12.992 12.992 0 0 0 1.698-6.075c0 .164-.02.328-.041.491a13.037 13.037 0 0 1-1.657 5.38A13.048 13.048 0 0 1 24 35.914c-1.514.614-3.17.962-4.91.962-2.352 0-4.56-.634-6.463-1.718A13.082 13.082 0 0 1 6 23.888v.102c0 4.868 2.659 9.122 6.627 11.372" opacity=".2"/><path fill="url(#b)" d="M33.368 19.776a12.958 12.958 0 0 1 2.761 4.214 13.085 13.085 0 0 1-.757 11.372 12.565 12.565 0 0 0 2.782-2.127 12.85 12.85 0 0 0 3.252-5.42l-8.038-8.039Z"/><path fill="#1A237E" d="M35.372 35.158a12.566 12.566 0 0 1-2.127 2.782c-5.114 5.113-13.398 5.113-18.511 0a13.102 13.102 0 0 1-1.944-2.475c-.06-.041-.122-.062-.184-.103a12.569 12.569 0 0 0 2.128 2.782c5.113 5.114 13.397 5.114 18.51 0 .86-.859 1.555-1.8 2.128-2.782a12.86 12.86 0 0 0 1.698-6.484 12.748 12.748 0 0 1-1.698 6.28Z" opacity=".2"/><path fill="url(#c)" fill-opacity=".1" d="M38.154 14.745a13.59 13.59 0 0 0-2.782-2.128 12.563 12.563 0 0 0-2.127-2.781c-5.114-5.114-13.397-5.114-18.511 0-.86.859-1.555 1.8-2.127 2.781A13.078 13.078 0 0 0 6 23.99c0 4.868 2.659 9.122 6.627 11.372a12.569 12.569 0 0 0 2.127 2.782c5.114 5.114 13.398 5.114 18.511 0 .86-.859 1.555-1.8 2.128-2.782a12.566 12.566 0 0 0 2.781-2.127c5.093-5.093 5.093-13.397-.02-18.49ZM32.18 23.99A8.18 8.18 0 0 1 24 32.17a8.18 8.18 0 0 1-8.182-8.181A8.18 8.18 0 0 1 24 15.808a8.18 8.18 0 0 1 8.181 8.182Z"/><defs><radialGradient id="c" cx="0" cy="0" r="1" gradientTransform="translate(10.635 10.831) scale(35.7298)" gradientUnits="userSpaceOnUse"><stop stop-color="#fff"/><stop offset="1" stop-color="#fff" stop-opacity="0"/></radialGradient><linearGradient id="b" x1="33.485" x2="40.757" y1="26.674" y2="28.608" gradientUnits="userSpaceOnUse"><stop stop-color="#BF360C" stop-opacity=".2"/><stop offset="1" stop-color="#BF360C" stop-opacity="0"/></linearGradient><filter id="a" width="36.449" height="38.171" x="8.648" y="9.829" color-interpolation-filters="sRGB" filterUnits="userSpaceOnUse"><feFlood flood-opacity="0" result="BackgroundImageFix"/><feColorMatrix in="SourceAlpha" result="hardAlpha" values="0 0 0 0 0 0 0 0 0 0 0 0 0 0 0 0 0 0 127 0"/><feOffset dx="2"/><feGaussianBlur stdDeviation="3"/><feColorMatrix values="0 0 0 0 0.768627 0 0 0 0 0.489469 0 0 0 0 0.0235294 0 0 0 0.2 0"/><feBlend in2="BackgroundImageFix" result="effect1_dropShadow_94_17912"/><feBlend in="SourceGraphic" in2="effect1_dropShadow_94_17912" result="shape"/></filter></defs></svg>
